X:1
T:Title
%%score ( 1 2 3 ) { 4 | 5 }
L:1/8
Q:1/4=95
M:6/8
K:Ab
V:1 treble nm="Grand Piano, Soprano"
V:2 treble 
V:3 treble 
V:4 bass nm="Choir Pad, When We Get Home (Latta)"
V:5 bass 
V:1
 [CE] [CA]2 [CA][CA][EG] | [DF][CE][DF] [CE] [A,C]2 | [CE]/[CE]/[CA][CA] [CA][=DA][DG] | %3
w: By~William~Oscar~Perkins * * * *|||
 [=DA] [EB]2- [EB]2- [EB]/ z/ | [DE] [CA]2 [CA][CA][EG] | [DF][CE][DF] [CE] [A,C]2 | %6
w: |||
 E/E/[EA][EA] [EA][EG][EA] | [EB] [EA]2- [EA]2- [EA]/ z/ | z [CE][CE] [CE] [CE]2 | %9
w: |||
 [CE]/[CE]/[DF][DF] [DF] [DF]2 | [DF][DG][DG] [DG][DG][DF] | [DG] [CA]2- [CA]2- [CA]/ z/ | %12
w: |||
 z [CE][CE] [CE] [CE]2 | [CE]/[CE]/[DF][DF] [DF] [DF]2 | [DF][DG][DG] [DG][DG][DF] | %15
w: |||
 [DG] [CA]2- [CA]2- [CA]/ z/ | z A2- A2 z | z B2- B2- B/ z/ | z B2- B2 z | %19
w: ||||
 [Ed] [Ec]2- [Ec]2- [Ec]/ z/ | z c2- c2 z | z d2- d2 z | z A2- A3 | [EB] [EA]2- [EA]3- | %24
w: |||||
 [EA]3 z3 |] %25
w: |
V:2
 x6 | x6 | x6 | x6 | x6 | x6 | x6 | x6 | x6 | x6 | x6 | x6 | x6 | x6 | x6 | x6 | .E3 .C2 G | %17
 [EA] E2 E E2 | E E2 .E2 c | x6 | .A3 .E2 B | [Ec] F2 .F2 c | [FB] E2 E .[EG]2 | x6 | x6 |] %25
V:3
 x6 | x6 | x6 | x6 | x6 | x6 | x6 | x6 | x6 | x6 | x6 | x6 | x6 | x6 | x6 | x6 | z3 z E2 | x6 | %18
 z3 z E2 | x6 | z3 z E2 | z3 z F2 | x6 | x6 | x6 |] %25
V:4
 A, E,2 E,E,A, | A,A,A, A, E,2 | A,/A,/A,A, A,A,A, | A, G,2- G,2- G,/ z/ | G, A,2 E,E,A, | %5
 A,A,A, A, A,2 | A,/A,/[K:treble]CC CB,C | D C2- C2- C/ z/ | z[K:bass] A,A, A, A,2 | %9
 A,/A,/A,A, A, A,2 | A,B,B, B,B,B, | B, A,2- A,2- A,/ z/ | z A,A, A, A,2 | A,/A,/A,A, A, A,2 | %14
 A,B,B, B,B,B, | B, A,2- A,2- A,/ z/ | z3 A, E,2 | A, G,2 G, G,2 | G, G,2 G,G,A, | %19
 B, A,2- A,2- A,/ z/ | z3 A, A,2 | A, A,2 A, A,2 | A,[K:treble] C2 CB,C | D C2- C3- | C3 z3 |] %25
V:5
 A,, A,,2 A,,A,,A,, | A,,A,,A,, A,, A,,2 | A,,/A,,/F,F, F,F,F, | F, E,2- E,2- E,/ z/ | %4
 E, A,,2 A,,A,,A,, | A,,A,,A,, A,, A,,2 | C,/C,/E,E, E,E,E, | E, A,,2- A,,2- A,,/ z/ | %8
 z A,,A,, A,, A,,2 | A,,/A,,/D,D, D, D,2 | D,B,,B,, B,,E,E, | E, A,,2- A,,2- A,,/ z/ | %12
 z A,,A,, A,, A,,2 | A,,/A,,/D,D, D, D,2 | D,B,,B,, B,,E,E, | E, A,,2- A,,2- A,,/ z/ | %16
 z3 A,,C,B,, | A,, E,2 E, E,2 | E, E,2 E, E,2 | .E,3 z3 | z3 A,, A,,2 | A,, D,2 D, D,2 | %22
 D, E,2 E, E,2 | E, A,,2- A,,3- | A,,3 z3 |] %25

